X:1
T:Courante Violin & Cello duet / from Keyboard Pieces No. 2
T:Jean-Baptiste Lully (1632-1687)
T:Composed by Jean-Baptiste Lully. Arranged for Viola/Cello by Mike Magatagan. Adapted for Violin/Cello duet by Gregor vom Scheidt.
T:Composed by Jean-Baptiste Lully. Arranged for Viola/Cello by Mike Magatagan. Adapted for Violin/Cello duet by Gregor vom Scheidt.
C:Jean-Baptiste Lully
Z:Composed by Jean-Baptiste Lully. Arranged for Viola/Cello by Mike Magatagan. Adapted for Violin/Cello duet by Gregor vom Scheidt.
%%score 1 2
L:1/8
Q:1/4=160
M:3/4
K:F
V:1 treble nm="Violin"
V:2 bass nm="Cello"
V:1
|:"^Presto scherzando"!mf! d | dA df ed | eA eg fe | fe df ed | (^c/d/ c2) .a .ea | fd af da | %6
 .b.d gf ed | eg eg cg | .a.c fe dc | df df Bf | .g.=B ed ^cB | (^c/=B/ c2) a ga | fe!>(! Te4 | %13
 d6!>)! | ^c6 | dA df .e.d | eA eg .f.e | fg fe dc | =Bc dc .B.A | ^G2 =B2 e2 | %20
 c2 A2 (e/f/e/e/4d/4) | f2 A2 d2 | (=B/c/ B) G2 (d/e/d/d/4c/4) | e2 G2 c2 | A2 F2 (c/d/c/d/4=B/4) | %25
 d2 F2 =B2 | (^G/A/ G2) e de | ce =Be Ae | ^Ge ^Fe Ee | d/e/4d/4c T=B2!>(! BA | %30
[Q:1/4=150]"^rit." AE[Q:1/4=140]"^*" C3[Q:1/4=120]"^*" E!>)! |[Q:1/4=80]"^*" A4 z :: %32
[Q:1/4=150]"^Tempo meno mosso" e | ed ^ce ce | Ae .a.g !trill(!Te2- |!>(! !trill)!e6!>)! | f6 | %37
 z!<(! d Bd Bd!<)! | Gd .g.f !trill(!Td2- | !trill)!d6 | e6- | ec Ac Ac | Fc .f.e dc | %43
 (d/e/ .d2) d cd | (c/d/ .c2) c Bc | (B/c/ .B2) B AB | (A/B/ A) B2 (c/d/c/d/4B/4) | %47
 d2 TG2 (A/G/ F) | Ff Af Af | Gf ed ce | dc Bg Bg | Ag fe df | ed ^ca ea | %53
 (f/g/ f) d2 (a/b/a/>g/) | b2 d2 g2 | (e/f/ e) c2 (g/a/g/>f/) | a2 c2 f2 | %57
 (d/e/ d) B2 (f/g/f/>e/) | g2 B2 e2 | (^c/d/ c2) a ga | Te6 | dA GA .F.A | BD GF .E.D | %63
 EG EG .C.G | Ac fe .d.c | df df .B.f | gB ed .^c.=B | (^c/=B/ c2) a ga | fa ea da | ^ca =Ba Aa | %70
 gf (e/f/e/f/)!>(! ed!>)! |[Q:1/4=140]"^rit." dA[Q:1/4=130]"^*" F3[Q:1/4=120]"^*" A | %72
[Q:1/4=80]"^*" D4 z :| %73
V:2
|: z |!mf! D,2 D,,2 D,2 | ^C,2 A,,2 C,2 | D,2 F,2 G,2 | A,2 A,,2 A,2 | D,2 F,2 A,2 | G,2 G,,2 G,2 | %7
 C,2 E,2 G,2 | F,2 F,,2 F,2 | B,,2 D,2 F,2 | E,2 E,,2 E,2 | A,,2 =B,,2 ^C,2 | D,2 A,2 A,,2 | %13
 .D,.A,, D,F, E,D, | .E,.A,, E,G, F,E, | F,2 A,2 D,2 | ^C,2 E,2 A,,2 | D,2 D,,2 D,2 | D,2 F,2 D,2 | %19
 E,^F, ^G,E, .F,.G, | A,=B, CA, .B,.C | D,E, F,D, .E,.F, | G,A, =B,G, .A,.B, | C,D, E,C, D,E, | %24
 F,G, A,F, .G,.A, | =B,,C, D,B,, C,D, | E,^F, ^G,E, F,G, | .A,2 .G,2 .F,2 | .E,2 .D,2 .C,2 | %29
 F,2 E,2 E,,2 |!>(! A,,3 E, A,2- | A,2!>)! A,,2 z :: z | A,6 | A,,4 A,2 | DA, .F,.A, F,A, | %36
 D,A, DC B,A, |!>(! B,6!>)! | B,4 G,2 | CG, .E,.G, E,G, | C,G, CB, A,G, |!>(! A,6!>)! | C4 F,2 | %43
!<(! B,,B, A,B, .G,.B,!<)! | A,,A, G,A, .F,.A, | G,,G, F,G, .E,.G, | F,,F, G,,F, A,,F, | %47
 B,,2 C,2 C,,2 | F,,4 F,2 | .C,2 .E,2 .G,2 | G,,4 G,2 | .D,2 .F,2 .A,2 | A,,4 A,2 | %53
 D,E, F,D, E,F, | G,A, B,G, A,B, | C,D, E,C, D,E, | F,G, A,F, G,A, | B,,C, D,B,, C,D, | %58
 E,F, G,E, F,G, | A,,E, A,2 ^C,2 | D,2 F,2 A,2 | D4 D,2 | G,2 A,2 B,2 | C4 C,2 | F,2 G,2 A,2 | %65
 B,4 B,,2 | E,2 F,2 G,2 | A,2 =B,2 ^C2 | D2 C2 B,2 | A,2 G,2 F,2 | G,2 A,2 A,,2 | %71
!>(! D,3 A,, D,2-!>)! | D,2 D,,2 z :| %73

